cfgov/unprocessed/apps/teachers-digital-platform/img/dollar.svg

<svg height="24" viewBox="0 0 24 24" width="24" xmlns="http://www.w3.org/2000/svg"><path d="m13.1317725 13.9168514c.3692043-.2398036.56456-.5742382.56456-.9663833 0-.2756487-.1000078-.5419776-.2828177-.7516713-.1215148-.138362-.2742149-.2602353-.4312163-.3433958-.1372866-.0716902-.2924958-.1276085-.4498557-.1620198-.1319099-.0286761-.2706304-.0430141-.4125769-.0430141-.0957063 0-.1824514-.0068106-.2663289-.0207901-.0971401-.0164888-.200374-.0494662-.2842515-.0917634-.0838774-.0415803-.1623782-.1046677-.2222394-.1777916-.0673888-.0828021-.1075353-.1867529-.1075353-.2781578 0-.1053845.0444479-.2588015.2566508-.3925036.167755-.1064599.4032571-.1699057.629798-.1699057.0552014 0 .1333437.0172057.2243902.0369204l.0261669.0057353c.0770669.0164887.1670381.0480324.2670458.0928387.0831606.0376373.160586.0906881.2236733.1537754.1408712.1405127.3688459.1405127.5093586-.0003585.1401542-.1405127.1397958-.3684874-.0007169-.5093585-.124024-.1236655-.2749318-.2276163-.4369515-.30038176-.1473233-.06595494-.2810254-.11183664-.4100677-.1397958l-.02545-.00573522-.029393-.00645211v-.47458883c0-.19894018-.1613028-.36024303-.360243-.36024303s-.3598846.16130285-.3598846.36024303v.4631184c-.2340684.04408945-.4570247.12868383-.6427022.24589722-.3763734.2372944-.5918023.6021973-.5918023 1.001153 0 .2588015.0957064.5193952.2691966.7319565.1240239.1534169.2828176.280667.4584585.3677705.1469648.0741993.3208134.1301176.48821.1580768.1225901.0204317.2487648.0304683.3846176.0304683.0910465 0 .178867.0089613.2595184.0265254.094631.0204317.1874698.054126.2674043.0957063.0777838.0415803.1623782.1089691.2243902.1799423.0670303.0767085.105026.1777916.105026.2781578 0 .0967817-.0268838.2261825-.2365775.3620353-.1699056.1104029-.4165198.1788669-.6430607.1788669-.087462 0-.2243901-.0240162-.276724-.0333359-.0860281-.0146965-.1752824-.0491077-.2602352-.0828021-.0745578-.0297514-.1473233-.0853113-.2161458-.1648874-.1301177-.1501908-.3573755-.167038-.5075663-.0365619-.1505494.1301176-.1670381.3573754-.0369205.5079247.1448141.167755.3114938.2892698.4935867.3616768.1143458.0458817.2491233.0971402.4036156.124024.0189979.0035845.0383543.0068106.0577106.0100366v.4753058c0 .1982232.1609444.3598845.3598846.3598845s.360243-.1616613.360243-.3598845v-.4792487c.2394451-.0469571.4706459-.1354944.6577572-.2566508zm2.5647153-1.904449c0 .484267-.094631.9538375-.2817423 1.3954489-.1803008.4269148-.4387438.8100987-.76816 1.139515-.3294163.3294162-.7133171.5878593-1.1398735.76816-.4419698.1871113-.9111819.2817423-1.3954489.2817423-.4839085 0-.953479-.094631-1.3950904-.2817423-.4269149-.1803007-.8104572-.4387438-1.13951501-.76816-.32977472-.3294163-.58821773-.7126002-.76887692-1.139515-.18675285-.4416114-.28138386-.9111819-.28138386-1.3954489 0-.4839086.09463101-.9538375.28138386-1.3950904.18065919-.4269149.4391022-.81045723.76887692-1.13987349.32905781-.32941626.71260011-.58785927 1.13951501-.76816001.4416114-.18711131.9111819-.28174231 1.3950904-.28174231.484267 0 .9534791.094631 1.3954489.28138386.4265564.18065919.8104572.4391022 1.1398735.76851846.3294162.32941626.5878592.71295859.76816 1.13987349.1871113.4412529.2817423.9111818.2817423 1.3950904zm4.8071833 3.8225191v-7.64539663c0-.26381977-.2157873-.47960713-.4799656-.47960713h-16.03206935c-.26417822 0-.48032404.21578736-.48032404.47960713v7.64539663c0 .2641782.21614582.4799656.48032404.4799656h16.03206935c.2641783 0 .4799656-.2157874.4799656-.4799656zm3.4963289-3.8350649c0 6.6277549-5.3724602 12.0002151-11.9998566 12.0002151-6.62739641 0-12.00021509-5.3724602-12.00021509-12.0002151 0-6.62739637 5.37281868-11.9998566 12.00021509-11.9998566 6.6273964 0 11.9998566 5.37246023 11.9998566 11.9998566z" fill="#101820" fill-rule="evenodd"/></svg>

<?xml version="1.0" encoding="UTF-8"?>
<svg width="24px" height="24px" viewBox="0 0 24 24" version="1.1" xmlns="http://www.w3.org/2000/svg" xmlns:xlink="http://www.w3.org/1999/xlink">
    <title>Fill 1</title>
    <g id="Designs---r3.0" stroke="none" stroke-width="1" fill="none" fill-rule="evenodd">
        <g id="Design:-Landing-Page---r3" transform="translate(-80.000000, -215.000000)" fill="#101820">
            <g id="Group-3" transform="translate(80.000000, 215.000000)">
                <path d="M13.1317725,13.9168514 C13.5009768,13.6770478 13.6963325,13.3426132 13.6963325,12.9504681 C13.6963325,12.6748194 13.5963247,12.4084905 13.4135148,12.1987968 C13.292,12.0604348 13.1392999,11.9385615 12.9822985,11.855401 C12.8450119,11.7837108 12.6898027,11.7277925 12.5324428,11.6933812 C12.4005329,11.6647051 12.2618124,11.6503671 12.1198659,11.6503671 C12.0241596,11.6503671 11.9374145,11.6435565 11.853537,11.629577 C11.7563969,11.6130882 11.653163,11.5801108 11.5692855,11.5378136 C11.4854081,11.4962333 11.4069073,11.4331459 11.3470461,11.360022 C11.2796573,11.2772199 11.2395108,11.1732691 11.2395108,11.0818642 C11.2395108,10.9764797 11.2839587,10.8230627 11.4961616,10.6893606 C11.6639166,10.5829007 11.8994187,10.5194549 12.1259596,10.5194549 C12.181161,10.5194549 12.2593033,10.5366606 12.3503498,10.5563753 L12.3765167,10.5621106 C12.4535836,10.5785993 12.5435548,10.610143 12.6435625,10.6549493 C12.7267231,10.6925866 12.8041485,10.7456374 12.8672358,10.8087247 C13.008107,10.9492374 13.2360817,10.9492374 13.3765944,10.8083662 C13.5167486,10.6678535 13.5163902,10.4398788 13.3758775,10.2990077 C13.2518535,10.1753422 13.1009457,10.0713914 12.938926,9.99862594 C12.7916027,9.932671 12.6579006,9.8867893 12.5288583,9.85883014 L12.5034083,9.85309492 L12.4740153,9.84664281 L12.4740153,9.37205398 C12.4740153,9.1731138 12.3127125,9.01181095 12.1137723,9.01181095 C11.9148321,9.01181095 11.7538877,9.1731138 11.7538877,9.37205398 L11.7538877,9.83517238 C11.5198193,9.87926183 11.296863,9.96385621 11.1111855,10.0810696 C10.7348121,10.318364 10.5193832,10.6832669 10.5193832,11.0822226 C10.5193832,11.3410241 10.6150896,11.6016178 10.7885798,11.8141791 C10.9126037,11.967596 11.0713974,12.0948461 11.2470383,12.1819496 C11.3940031,12.2561489 11.5678517,12.3120672 11.7352483,12.3400264 C11.8578384,12.3604581 11.9840131,12.3704947 12.1198659,12.3704947 C12.2109124,12.3704947 12.2987329,12.379456 12.3793843,12.3970201 C12.4740153,12.4174518 12.5668541,12.4511461 12.6467886,12.4927264 C12.7245724,12.5343067 12.8091668,12.6016955 12.8711788,12.6726687 C12.9382091,12.7493772 12.9762048,12.8504603 12.9762048,12.9508265 C12.9762048,13.0476082 12.949321,13.177009 12.7396273,13.3128618 C12.5697217,13.4232647 12.3231075,13.4917287 12.0965666,13.4917287 C12.0091046,13.4917287 11.8721765,13.4677125 11.8198426,13.4583928 C11.7338145,13.4436963 11.6445602,13.4092851 11.5596074,13.3755907 C11.4850496,13.3458393 11.4122841,13.2902794 11.3434616,13.2107033 C11.2133439,13.0605125 10.9860861,13.0436653 10.8358953,13.1741414 C10.6853459,13.304259 10.6688572,13.5315168 10.7989748,13.6820661 C10.9437889,13.8498211 11.1104686,13.9713359 11.2925615,14.0437429 C11.4069073,14.0896246 11.5416848,14.1408831 11.6961771,14.1677669 C11.715175,14.1713514 11.7345314,14.1745775 11.7538877,14.1778035 L11.7538877,14.6531093 C11.7538877,14.8513325 11.9148321,15.0129938 12.1137723,15.0129938 C12.3127125,15.0129938 12.4740153,14.8513325 12.4740153,14.6531093 L12.4740153,14.1738606 C12.7134604,14.1269035 12.9446612,14.0383662 13.1317725,13.9172098 L13.1317725,13.9168514 Z M15.6964878,12.0124024 C15.6964878,12.4966694 15.6018568,12.9662399 15.4147455,13.4078513 C15.2344447,13.8347661 14.9760017,14.21795 14.6465855,14.5473663 C14.3171692,14.8767825 13.9332684,15.1352256 13.506712,15.3155263 C13.0647422,15.5026376 12.5955301,15.5972686 12.1112631,15.5972686 C11.6273546,15.5972686 11.1577841,15.5026376 10.7161727,15.3155263 C10.2892578,15.1352256 9.9057155,14.8767825 9.57665769,14.5473663 C9.24688297,14.21795 8.98843996,13.8347661 8.80778077,13.4078513 C8.62102792,12.9662399 8.52639691,12.4966694 8.52639691,12.0124024 C8.52639691,11.5284938 8.62102792,11.0585649 8.80778077,10.617312 C8.98843996,10.1903971 9.24688297,9.80685477 9.57665769,9.47743851 C9.9057155,9.14802225 10.2892578,8.88957924 10.7161727,8.7092785 C11.1577841,8.52216719 11.6273546,8.42753619 12.1112631,8.42753619 C12.5955301,8.42753619 13.0647422,8.52216719 13.506712,8.70892005 C13.9332684,8.88957924 14.3171692,9.14802225 14.6465855,9.47743851 C14.9760017,9.80685477 15.2344447,10.1903971 15.4147455,10.617312 C15.6018568,11.0585649 15.6964878,11.5284938 15.6964878,12.0124024 L15.6964878,12.0124024 Z M20.5036711,15.8349215 L20.5036711,8.18952487 C20.5036711,7.9257051 20.2878838,7.70991774 20.0237055,7.70991774 L3.99163615,7.70991774 C3.72745793,7.70991774 3.51131211,7.9257051 3.51131211,8.18952487 L3.51131211,15.8349215 C3.51131211,16.0990997 3.72745793,16.3148871 3.99163615,16.3148871 L20.0237055,16.3148871 C20.2878838,16.3148871 20.5036711,16.0990997 20.5036711,15.8349215 L20.5036711,15.8349215 Z M24,11.9998566 C24,18.6276115 18.6275398,24.0000717 12.0001434,24.0000717 C5.37274699,24.0000717 -7.16901551e-05,18.6276115 -7.16901551e-05,11.9998566 C-7.16901551e-05,5.37246023 5.37274699,0 12.0001434,0 C18.6275398,0 24,5.37246023 24,11.9998566 L24,11.9998566 Z" id="Fill-1"></path>
            </g>
        </g>
    </g>
</svg>
